modules/coreui-icons-free/icons/weightlifitng.svg

<!-- Generated by IcoMoon.io -->
<svg version="1.1" xmlns="http://www.w3.org/2000/svg" width="24" height="24" viewBox="0 0 24 24">
<title>weightlifitng</title>
<path d="M13.688 7.313c0 0.932-0.756 1.688-1.688 1.688s-1.688-0.756-1.688-1.688c0-0.932 0.756-1.688 1.688-1.688s1.688 0.756 1.688 1.688z"></path>
<path d="M18.75 0.75v2.625h-13.5v-2.625h-4.5v6.75h4.5v-2.625h1.185l0.353 4.232 3.712 1.856v4.786h-3.709l-0.347 6.254h1.502l0.264-4.754h7.581l0.264 4.754h1.502l-0.347-6.254h-3.709v-4.786l3.712-1.856 0.353-4.232h1.185v2.625h4.5v-6.75zM3.75 3.375v2.625h-1.5v-3.75h1.5zM15.788 8.143l-3.788 1.894-3.788-1.894-0.272-3.268h8.12zM21.75 6h-1.5v-3.75h1.5z"></path>
</svg>

<svg xmlns="http://www.w3.org/2000/svg" width="24" height="24" viewBox="0 0 24 24"><path d="M13.688 7.313a1.688 1.688 0 11-3.377 0 1.688 1.688 0 013.377 0z"/><path d="M18.75.75v2.625H5.25V.75H.75V7.5h4.5V4.875h1.185l.353 4.232 3.712 1.856v4.786H6.791l-.347 6.254h1.502l.264-4.754h7.581l.264 4.754h1.502l-.347-6.254h-3.709v-4.786l3.712-1.856.353-4.232h1.185V7.5h4.5V.75zm-15 2.625V6h-1.5V2.25h1.5zm12.038 4.768L12 10.037 8.212 8.143 7.94 4.875h8.12zM21.75 6h-1.5V2.25h1.5z"/></svg>
